X:132
T: SCHLAFE MEIN PRINZCHEN
N: B0623
O: Europa, Mitteleuropa, Deutschland
R: Kinder -, Wiegen - Lied
M: 6/8
L: 1/16
K: F
 | A2B2A2G2F2G2 | F4z8
F2B2B2B2c2d2 | c4z8
G2^F2G2G2F2G2 | A4z8
A2G2A2B2A2B2 | c4z8
d2^c2d2d2c2d2 | f4z8
c2c2c2c2=B2c2 | f4z8
B2c2B2A2B2c2 | C4z8
A2B2A2G2F2G2 | F6z6

